Obsidian/actions/22s/account-delete.svg

<svg height="22" width="22" xmlns="http://www.w3.org/2000/svg"><g fill="#bebebe"><path d="m6.5 3c-.831 0-1.5.669-1.5 1.5v.5h12v-.5c0-.831-.669-1.5-1.5-1.5zm-1.5 4v2h12v-2zm0 4v2h9 1a1.0001 1.0001 0 0 1 1-1h1v-1zm0 4v2h9v-1a1.0001 1.0001 0 0 1 -1-1z"/><path d="m5 5v2h12v-2zm0 4v2h12v-2zm0 4v2h8v-1a1.0001 1.0001 0 0 1 1-1zm0 4v.5c0 .831.669 1.5 1.5 1.5h7.5v-2z" opacity=".3"/><path d="m15 3v10a1.0001 1.0001 0 0 1 1-1h1v-1-2-2-2-.5c0-.831-.669-1.5-1.5-1.5z" opacity=".3"/><path d="m16 13v1h-2v1h6v-1h-2v-1zm-1 3v4h4v-4z"/></g></svg>

<svg xmlns="http://www.w3.org/2000/svg" width="22" height="22" version="1.1">
 <defs>
  <style id="current-color-scheme" type="text/css">
   .ColorScheme-Text { color:#bebebe; } .ColorScheme-Highlight { color:#4285f4; }
  </style>
 </defs>
 <path style="fill:currentColor" class="ColorScheme-Text" d="M 6.5 3 C 5.669 3 5 3.669 5 4.5 L 5 5 L 17 5 L 17 4.5 C 17 3.669 16.331 3 15.5 3 L 6.5 3 z M 5 7 L 5 9 L 17 9 L 17 7 L 5 7 z M 5 11 L 5 13 L 14 13 L 15 13 A 1.0001 1.0001 0 0 1 16 12 L 17 12 L 17 11 L 5 11 z M 5 15 L 5 17 L 14 17 L 14 16 A 1.0001 1.0001 0 0 1 13 15 L 5 15 z"/>
 <path style="opacity:0.3;fill:currentColor" class="ColorScheme-Text" d="M 5 5 L 5 7 L 17 7 L 17 5 L 5 5 z M 5 9 L 5 11 L 17 11 L 17 9 L 5 9 z M 5 13 L 5 15 L 13 15 L 13 14 A 1.0001 1.0001 0 0 1 14 13 L 5 13 z M 5 17 L 5 17.5 C 5 18.331 5.669 19 6.5 19 L 14 19 L 14 17 L 5 17 z"/>
 <path style="opacity:0.3;fill:currentColor" class="ColorScheme-Text" d="M 15 3 L 15 13 A 1.0001 1.0001 0 0 1 16 12 L 17 12 L 17 11 L 17 9 L 17 7 L 17 5 L 17 4.5 C 17 3.669 16.331 3 15.5 3 L 15 3 z"/>
 <path style="fill:currentColor" class="ColorScheme-Text" d="m 16,13 v 1 h -2 v 1 h 6 v -1 h -2 v -1 z m -1,3 v 4 h 4 v -4 z"/>
</svg>
